src/main/content/img/header.svg

<?xml version="1.0" encoding="UTF-8"?>
<svg width="2560px" height="521px" viewBox="0 0 2560 521" version="1.1" xmlns="http://www.w3.org/2000/svg" xmlns:xlink="http://www.w3.org/1999/xlink">
    <!-- Generator: Sketch 50.2 (55047) - http://www.bohemiancoding.com/sketch -->
    <title>Group</title>
    <desc>Created with Sketch.</desc>
    <defs>
        <linearGradient x1="55.7737339%" y1="24.6399458%" x2="79.3224076%" y2="-47.6033008%" id="linearGradient-1">
            <stop stop-color="#E9F5A9" offset="0%"></stop>
            <stop stop-color="#ABD155" offset="100%"></stop>
        </linearGradient>
    </defs>
    <g id="Downloads" stroke="none" stroke-width="1" fill="none" fill-rule="evenodd">
        <g id="Downloads_WideMonitor">
            <g id="Group" transform="translate(-416.000000, -180.000000)">
                <polygon id="BgTop-Copy-4" fill="url(#linearGradient-1)" transform="translate(1461.500000, 370.000000) scale(1, -1) translate(-1461.500000, -370.000000) " points="2291 313 1493.72341 632 957 557.076406 632 108 1735.8074 108"></polygon>
                <path d="M1937.72204,621.599116 C1935.03062,643.738207 1913.12478,661 1886.5,661 C1873.47014,661 1861.57048,656.865783 1852.5,650.048925 C1843.42952,656.865783 1831.52986,661 1818.5,661 C1807.307,661 1796.94801,657.94925 1788.5,652.767901 C1780.05199,657.94925 1769.693,661 1758.5,661 C1748.57418,661 1739.30421,658.600908 1731.44115,654.444406 C1721.72999,658.616045 1710.48527,661 1698.5,661 C1661.77306,661 1632,638.614237 1632,611 C1632,586.63219 1655.18411,566.335763 1685.87216,561.900315 C1691.67992,528.580313 1725.78984,503 1767,503 C1769.47198,503 1771.9184,503.092042 1774.33471,503.272275 C1774.11307,501.291341 1774,499.287177 1774,497.263158 C1774,462.542899 1807.271,433.665145 1851.15004,427.669013 C1859.38807,380.333934 1907.62988,344 1965.90988,344 C1997.00827,344 2025.24847,354.345451 2046.07768,371.187435 C2054.65378,368.170724 2064.04626,366.507177 2073.89259,366.507177 C2096.44206,366.507177 2116.61125,375.232049 2130.04552,388.953709 C2140.20388,363.384338 2168.35818,345 2201.5,345 C2211.61023,345 2221.25632,346.710872 2230.06896,349.814675 C2251.70796,331.988847 2281.32928,321 2314,321 C2374.69454,321 2424.86469,358.925728 2432.88215,408.156697 C2478.43673,414.294467 2513,444.125152 2513,480 C2513,497.794585 2504.49625,514.102098 2490.36542,526.768731 C2490.78338,529.154697 2491,531.597037 2491,534.082677 C2491,540.721685 2489.45465,547.051789 2486.65502,552.823889 C2511.04153,558.408247 2529,577.45058 2529,600.082677 C2529,627.098969 2503.40995,649 2471.84302,649 C2457.51895,649 2444.42555,644.490451 2434.39535,637.039707 C2424.36515,644.490451 2411.27175,649 2396.94767,649 C2384.43207,649 2372.85601,645.557268 2363.44186,639.717966 C2354.02771,645.557268 2342.45165,649 2329.93605,649 C2318.97062,649 2308.72639,646.357278 2300.02549,641.775428 C2292.16924,645.137088 2283.40605,647.445344 2274.07885,648.443338 C2263.95114,656.249143 2250.54535,661 2235.84302,661 C2221.51895,661 2208.42555,656.490451 2198.39535,649.039707 C2188.36515,656.490451 2175.27175,661 2160.94767,661 C2148.43207,661 2136.85601,657.557268 2127.44186,651.717966 C2118.02771,657.557268 2106.45165,661 2093.93605,661 C2082.97062,661 2072.72639,658.357278 2064.02549,653.775428 C2053.28134,658.372809 2040.84095,661 2027.5814,661 C1996.27106,661 1969.52831,646.35095 1958.9014,625.703382 C1951.4557,625.124941 1944.33977,623.714795 1937.72204,621.599114 Z" id="Combined-Shape" fill="#FFFFFF"></path>
                <path d="M3159.09788,487.117316 L3159.09788,632 L2444.22808,632 L2444.22808,542.578399 C2436.03148,548.249307 2425.85391,551.948611 2414.65598,552.731646 C2404.45885,553.444699 2394.76306,551.645243 2386.38619,547.938701 C2376.70838,552.92436 2365.32628,556.1827 2353.0119,557.043805 C2315.2785,559.682381 2283.08069,538.813754 2281.09607,510.432422 C2279.34476,485.387471 2301.70594,462.861429 2332.91664,456.098271 C2336.48801,421.434707 2369.6946,392.692394 2412.03474,389.731683 C2414.57529,389.55403 2417.09619,389.472875 2419.59247,389.484585 C2419.22212,387.463686 2418.96176,385.411083 2418.81623,383.329925 C2416.32089,347.644851 2448.42883,315.574355 2493.08001,306.259578 C2498.14063,257.0167 2545.09369,216.206395 2604.97173,212.019314 C2636.92122,209.785188 2666.67787,218.388481 2689.28801,234.200826 C2697.88302,230.483511 2707.41429,228.098539 2717.53151,227.391074 C2740.36867,225.794144 2761.43885,233.076791 2776.20006,245.868562 C2784.81826,215.00664 2818.23263,193.444118 2856.43367,196.115395 C2862.1777,196.517057 2867.73832,197.44623 2873.05521,198.843171 C2897.29256,174.681291 2934.64663,160.509033 2975.46603,163.363403 C3031.00972,167.247396 3075.81207,201.457335 3088.26108,245.052273 C3140.44469,251.17393 3179.613,286.655924 3176.82751,326.490223 C3175.77114,341.59704 3168.82664,355.244217 3157.74692,366.300664 C3157.90974,367.403352 3158.03127,368.518793 3158.11009,369.645926 C3158.58721,376.469105 3157.45456,383.085837 3154.99323,389.219224 C3180.44841,393.207352 3200.26657,411.488121 3201.89308,434.748303 C3203.57808,458.844872 3185.1859,480.366635 3159.09788,487.117316 Z" id="Combined-Shape" fill="#FFFFFF"></path>
                <path d="M933.705642,478.745423 L904.069358,764 L125.085888,601.785448 L154.071833,543.94623 C148.364633,545.551225 142.310272,546.618745 136.012042,547.05916 C98.2786427,549.697736 66.080767,528.828213 64.0960736,500.445775 C62.34469,475.399823 84.7058595,452.872949 115.916599,446.109638 C119.487781,411.444662 152.694341,382.701234 195.034551,379.740518 C197.575188,379.562859 200.096177,379.481709 202.592535,379.493432 C202.222162,377.472376 201.961771,375.419591 201.816229,373.338247 C199.320786,337.651748 231.42871,305.580069 276.079947,296.265086 C281.140297,247.020202 328.093314,206.208312 387.971451,202.021225 C419.92083,199.787106 449.677405,208.390741 472.287558,224.203648 C480.88264,220.48614 490.413997,218.101057 500.531331,217.393584 C523.368564,215.796649 544.438826,223.079682 559.200073,235.87206 C567.818337,205.008885 601.232789,183.445407 639.433851,186.116685 C645.177974,186.518353 650.738666,187.44757 656.05563,188.844586 C680.293062,164.681857 717.647056,150.509057 758.466308,153.363417 C814.010127,157.247419 858.812479,191.458711 871.261251,235.055449 C923.444871,241.177189 962.613105,276.660461 959.827511,316.496321 C958.771099,331.603709 951.826579,345.25142 940.746846,356.308318 C940.909702,357.411189 941.03126,358.526816 941.11009,359.654138 C941.58723,366.477556 940.454605,373.094517 937.993312,379.228114 C963.448406,383.216535 983.266514,401.498029 984.893084,424.759053 C986.753741,451.367694 964.134822,474.836755 933.705642,478.745423 Z" id="Combined-Shape-Copy" fill="#FFFFFF" transform="translate(524.500000, 458.500000) scale(-1, 1) rotate(-15.000000) translate(-524.500000, -458.500000) "></path>
                <circle id="Oval-3" fill="#FFFFFF" cx="2042" cy="303" r="2"></circle>
                <circle id="Oval-3-Copy-4" fill="#FFFFFF" cx="1954" cy="211" r="2"></circle>
                <circle id="Oval-3-Copy-3" fill="#C8D2D2" cx="2218" cy="323" r="2"></circle>
                <circle id="Oval-3" fill="#C8D2D2" cx="2023" cy="296" r="2"></circle>
                <g id="Group-Copy-21" transform="translate(864.000000, 522.000000)" fill="#FFFFFF">
                    <ellipse id="Oval-2" cx="114" cy="55.5" rx="69" ry="55.5"></ellipse>
                    <ellipse id="Oval-2-Copy" cx="56" cy="87" rx="56" ry="40"></ellipse>
                    <ellipse id="Oval-2-Copy-2" cx="106.5" cy="91.5" rx="43.5" ry="35.5"></ellipse>
                    <ellipse id="Oval-2-Copy-6" cx="157.5" cy="91.5" rx="43.5" ry="35.5"></ellipse>
                    <ellipse id="Oval-2-Copy-7" cx="214.5" cy="91.5" rx="43.5" ry="35.5"></ellipse>
                    <ellipse id="Oval-2-Copy-3" cx="178.5" cy="48.5" rx="43.5" ry="35.5"></ellipse>
                </g>
                <ellipse id="Oval-4" fill="#FEFFF0" transform="translate(1232.385382, 125.223588) rotate(-14.000000) translate(-1232.385382, -125.223588) " cx="1232.38538" cy="125.223588" rx="287" ry="57.5"></ellipse>
            </g>
        </g>
    </g>
</svg>

<svg width="2560" height="521" xmlns="http://www.w3.org/2000/svg"><defs><linearGradient x1="55.774%" y1="24.64%" x2="79.322%" y2="-47.603%" id="a"><stop stop-color="#E9F5A9" offset="0%"/><stop stop-color="#ABD155" offset="100%"/></linearGradient></defs><g transform="translate(-416 -180)" fill="none" fill-rule="evenodd"><path fill="url(#a)" transform="matrix(1 0 0 -1 0 740)" d="M2291 313l-797.277 319L957 557.076 632 108h1103.807z"/><path d="M1937.722 621.6c-2.691 22.138-24.597 39.4-51.222 39.4-13.03 0-24.93-4.134-34-10.951-9.07 6.817-20.97 10.951-34 10.951-11.193 0-21.552-3.05-30-8.232-8.448 5.181-18.807 8.232-30 8.232-9.926 0-19.196-2.4-27.059-6.556-9.711 4.172-20.956 6.556-32.941 6.556-36.727 0-66.5-22.386-66.5-50 0-24.368 23.184-44.664 53.872-49.1 5.808-33.32 39.918-58.9 81.128-58.9 2.472 0 4.918.092 7.335.272a54.016 54.016 0 0 1-.335-6.009c0-34.72 33.271-63.598 77.15-69.594 8.238-47.335 56.48-83.669 114.76-83.669 31.098 0 59.338 10.345 80.168 27.187 8.576-3.016 17.968-4.68 27.815-4.68 22.55 0 42.718 8.725 56.153 22.447 10.158-25.57 38.312-43.954 71.454-43.954 10.11 0 19.756 1.71 28.569 4.815C2251.708 331.989 2281.329 321 2314 321c60.695 0 110.865 37.926 118.882 87.157C2478.437 414.294 2513 444.125 2513 480c0 17.795-8.504 34.102-22.635 46.769.418 2.386.635 4.828.635 7.314 0 6.639-1.545 12.969-4.345 18.74 24.387 5.585 42.345 24.628 42.345 47.26 0 27.016-25.59 48.917-57.157 48.917-14.324 0-27.417-4.51-37.448-11.96-10.03 7.45-23.123 11.96-37.447 11.96-12.516 0-24.092-3.443-33.506-9.282-9.414 5.84-20.99 9.282-33.506 9.282-10.965 0-21.21-2.643-29.91-7.225-7.857 3.362-16.62 5.67-25.947 6.668-10.128 7.806-23.534 12.557-38.236 12.557-14.324 0-27.417-4.51-37.448-11.96-10.03 7.45-23.123 11.96-37.447 11.96-12.516 0-24.092-3.443-33.506-9.282-9.414 5.84-20.99 9.282-33.506 9.282-10.965 0-21.21-2.643-29.91-7.225-10.745 4.598-23.185 7.225-36.445 7.225-31.31 0-58.053-14.649-68.68-35.297-7.445-.578-14.561-1.988-21.179-4.104z" fill="#FFF"/><path d="M3159.098 487.117V632h-714.87v-89.422c-8.197 5.671-18.374 9.37-29.572 10.154-10.197.713-19.893-1.087-28.27-4.793-9.678 4.985-21.06 8.244-33.374 9.105-37.734 2.638-69.931-18.23-71.916-46.612-1.751-25.045 20.61-47.57 51.82-54.334 3.572-34.663 36.779-63.406 79.119-66.366 2.54-.178 5.061-.26 7.557-.247a55.67 55.67 0 0 1-.776-6.155c-2.495-35.685 29.613-67.756 74.264-77.07 5.06-49.243 52.014-90.054 111.892-94.24 31.95-2.235 61.706 6.368 84.316 22.18 8.595-3.716 18.126-6.101 28.244-6.809 22.837-1.597 43.907 5.686 58.668 18.478 8.618-30.862 42.033-52.425 80.234-49.754a90.141 90.141 0 0 1 16.621 2.728c24.238-24.162 61.592-38.334 102.411-35.48 55.544 3.884 100.346 38.094 112.795 81.69 52.184 6.12 91.352 41.603 88.567 81.437-1.057 15.107-8.001 28.754-19.081 39.81a43.87 43.87 0 0 1 .363 3.346c.477 6.823-.655 13.44-3.117 19.573 25.455 3.988 45.274 22.27 46.9 45.53 1.685 24.096-16.707 45.618-42.795 52.368zm-3035.1-114.972L78.795 655.351l794.424 44.928-13.028-63.37a89.91 89.91 0 0 0 16.639 7.68c35.765 12.315 72.267.49 81.53-26.411 8.174-23.74-7.595-51.286-35.992-65.897 5.523-34.408-19.113-70.767-59.244-84.585a101.25 101.25 0 0 0-7.237-2.195 55.677 55.677 0 0 0 2.343-5.744c11.647-33.825-11.066-73.114-51.785-93.668 7.857-48.877-26.933-100.45-83.687-119.992-30.282-10.427-61.252-9.818-87.184-.396-7.34-5.816-15.93-10.586-25.52-13.888-21.645-7.454-43.882-5.872-61.451 2.664-.337-32.042-27.032-61.52-64.623-68.826a90.138 90.138 0 0 0-16.761-1.667c-17.158-29.613-49.57-52.97-89.738-60.778-54.656-10.624-106.787 10.825-130.095 49.715-51.99-7.593-99.007 16.543-106.627 55.743-2.89 14.866.286 29.846 8.127 43.394a43.828 43.828 0 0 0-1.217 3.138c-2.227 6.467-2.846 13.152-2.056 19.713-25.62-2.735-49.494 9.794-57.086 31.841-8.684 25.22 7.09 53.744 35.47 65.395z" fill="#FFF"/><circle fill="#FFF" cx="2042" cy="303" r="2"/><circle fill="#FFF" cx="1954" cy="211" r="2"/><circle fill="#C8D2D2" cx="2218" cy="323" r="2"/><circle fill="#C8D2D2" cx="2023" cy="296" r="2"/><g transform="translate(864 522)" fill="#FFF"><ellipse cx="114" cy="55.5" rx="69" ry="55.5"/><ellipse cx="56" cy="87" rx="56" ry="40"/><ellipse cx="106.5" cy="91.5" rx="43.5" ry="35.5"/><ellipse cx="157.5" cy="91.5" rx="43.5" ry="35.5"/><ellipse cx="214.5" cy="91.5" rx="43.5" ry="35.5"/><ellipse cx="178.5" cy="48.5" rx="43.5" ry="35.5"/></g><ellipse fill="#FEFFF0" transform="rotate(-14 1232.385 125.224)" cx="1232.385" cy="125.224" rx="287" ry="57.5"/></g></svg>
